glass-mug-variant.svg

<svg fill="currentColor" viewBox="0 0 24 24"><path d="M9.5 3C7.56 3 5.85 4.24 5.23 6.08A3.996 3.996 0 0 0 6 14v8h11v-2h3c.55 0 1-.45 1-1v-8c0-.55-.45-1-1-1h-2V8c0-2.21-1.79-4-4-4h-1.68c-.82-.65-1.79-1-2.82-1m0 2c.79 0 1.53.37 2 1H14a2 2 0 0 1 2 2h-4c-2 0-2.68 1.13-3.5 2.63S6 12 6 12c-1.11 0-2-.89-2-2a2 2 0 0 1 2-2h1v-.5A2.5 2.5 0 0 1 9.5 5m7.5 7h2v6h-2Z"/></svg>

<svg  viewBox="0 0 24 24" fill="currentColor"><path  d="M9.5 3C7.56 3 5.85 4.24 5.23 6.08C3.36 6.44 2 8.09 2 10C2 12.21 3.79 14 6 14V22H17V20H20C20.55 20 21 19.55 21 19V11C21 10.45 20.55 10 20 10H18V8C18 5.79 16.21 4 14 4H12.32C11.5 3.35 10.53 3 9.5 3M9.5 5C10.29 5 11.03 5.37 11.5 6H14C15.11 6 16 6.9 16 8H12C10 8 9.32 9.13 8.5 10.63C7.68 12.13 6 12 6 12C4.89 12 4 11.11 4 10C4 8.9 4.89 8 6 8H7V7.5C7 6.12 8.12 5 9.5 5M17 12H19V18H17Z"/></svg>
